!!!COM: Vivaldi, Antonio Lucio
!!!CDT: 1678/03/04-1741/08/28
!!!OPR: 12 Sonatas for Violin and Basso continuo
!!!OTL: Sonata in D major, op. @{OPS}, no. @{ONM} (@{SCT})
!!!OPS: 2
!!!ONM: 11
!!!OMV: 2. Fantasia
!!!SCT: RV 21
!!!SCA: Antonio Vivaldi: Thematisch-systematisches Verzeichnis seiner Werke (Ryom-Verzeichnis)
!!!OMD: Presto
!!!key: D
**kern	**fb	**kern
*part2	*	*part1
*staff2	*	*staff1
*ICklav	*	*ICstr
*Icemba	*	*Ivioln
*I"Basso continuo	*	*I"Violino
*I'bc	*	*I'v
*>[A,A,B,B]	*>[A,A,B,B]	*>[A,A,B,B]
*>norep[A,B]	*>norep[A,B]	*>norep[A,B]
*>A	*>A	*>A
*clefF4	*	*clefG2
*k[f#c#]	*	*k[f#c#]
*D:	*	*D:
*M3/4	*	*M9/8
*MM246	*	*MM246
=1	=1	=1
4.D\	.	(8ff#y\L
.	.	8dd\
.	.	8ff#y\J)
4.d\	.	(8aa\L
.	.	8ff#y\
.	.	8aa\J)
4.D\	.	(8ff#y\L
.	.	8dd\
.	.	8ff#y\J)
=2	=2	=2
4.AA/	.	8ee\L
.	.	8cc#y\
.	.	8ee\J
4.c#y\	.	8aa\L
.	.	8ee\
.	.	8aa\J
4.AA/	.	8ee\L
.	.	8cc#y\
.	.	8ee\J
=3	=3	=3
4.D\	.	8ff#y\L
.	.	8dd\
.	.	8ff#y\J
4.d\	.	8aa\L
.	.	8ff#y\
.	.	8aa\J
4.D\	.	8ff#y\L
.	.	8dd\
.	.	8ff#y\J
=4	=4	=4
4.AA/	.	8ee\L
.	.	8cc#y\
.	.	8ee\J
4.c#y\	.	8aa\L
.	.	8ee\
.	.	8aa\J
4.AA/	.	8ee\L
.	.	8cc#y\
.	.	8ee\J
=5	=5	=5
4.D\	.	8ff#y\L
.	.	8dd\
.	.	8ff#y\J
4.d\	.	8aa\L
.	.	8ff#y\
.	.	8aa\J
4.D\	.	8ff#y\L
.	.	8dd\
.	.	8aa\J
!!LO:LB:g=original
=6	=6	=6
4.D\	.	8ff#y\L
.	.	8dd\
.	.	8ff#y\J
4.d\	.	8bb\L
.	.	8ff#y\
.	.	8bb\J
4.D\	.	8ff#y\L
.	.	8dd\
.	.	8bb\J
=7	=7	=7
4.E\	#	8gg#X\L
.	.	8ee\
.	.	8gg#y\J
4.e\	.	8bb\L
.	.	8gg#y\
.	.	8bb\J
4.E\	.	8gg#y\L
.	.	8ee\
.	.	8bb\J
=8	=8	=8
4.D\	4#| 2	8gg#X\L
.	.	8ee\
.	.	8gg#y\J
4.d\	6 4#|	8bb\L
.	.	8gg#y\
.	.	8bb\J
4.D\	4#| 2	8gg#y\L
.	.	8ee\
.	.	8gg#y\J
=9	=9	=9
4.C#y/	6	8aa\L
.	.	8ee\
.	.	8aa\J
4.c#y\	.	8ee\L
.	.	8cc#y\
.	.	8ee\J
4.AA/	.	8aa\L
.	.	8ee\
.	.	8aa\J
=10	=10	=10
4.E\	6 4	8aa\L
.	.	8ee\
.	.	8aa\J
4.e\	5 #	8ee\L
.	.	8b\
.	.	8ee\J
4.E\	6 4	8aa\L
.	.	8ee\
.	.	8aa\J
=11	=11	=11
4.E\	#	8gg#X\L
.	.	8ee\
.	.	8gg#y\J
4.e\	.	8ee\L
.	.	8b\
.	.	8ee\J
4.E\	.	8gg#y\L
.	.	8ee\
.	.	8gg#y\J
!!LO:LB:g=original
=12	=12	=12
4.AA/	.	8aa\L
.	.	8ee\
.	.	8aa\J
4.r	.	8ee\L
.	.	8cc#y\
.	.	8ee\J
4.r	.	8cc#y\L
.	.	8a\
.	.	8cc#y\J
=13	=13	=13
8%9AA/	.	8%9A/
=14:|!|:	=14:|!|:	=14:|!|:
*>B	*>B	*>B
4.C#y/	6	8aa\L
.	.	8ee\
.	.	8aa\J
4.c#y\	.	8ee\L
.	.	8cc#y\
.	.	8ee\J
4.C#y/	.	8ggn\L
.	.	8ee\
.	.	8gg\J
=15	=15	=15
4.D\	.	8ff#y\L
.	.	8dd\
.	.	8ff#y\J
4.d\	.	8aa\L
.	.	8ff#y\
.	.	8aa\J
4.D\	.	8ff#y\L
.	.	8dd\
.	.	8ff#y\J
=16	=16	=16
4.D#X\	6	8bb\L
.	.	8ff#y\
.	.	8bb\J
4.d#X\	.	8ff#y\L
.	.	8dd#X\
.	.	8ff#y\J
4.D#y\	.	8aa\L
.	.	8ff#y\
.	.	8aa\J
=17	=17	=17
4.E\	#	8gg#X\L
.	.	8ee\
.	.	8gg#y\J
4.e\	.	8bb\L
.	.	8gg#y\
.	.	8bb\J
4.E\	.	8gg#y\L
.	.	8ee\
.	.	8gg#y\J
=18	=18	=18
4.E#X\	5	8bb\L
.	.	8gg#X\
.	.	8bb\J
4.c#y\	#	8ee#X\L
.	.	8cc#y\
.	.	8dd\J
4.E#y\	6 5	8cc#y\L
.	.	8dd\
.	.	8b\J
!!LO:LB:g=original
=19	=19	=19
4.F#y\	.	8a/L
.	.	8f#y/
.	.	8a/J
4.A\	.	8cc#y\L
.	.	8a\
.	.	8cc#y\J
4.F#y\	.	8ff#y\L
.	.	8cc#y\
.	.	8ff#y\J
=20	=20	=20
4.BB/	6	(8ggn\L
.	.	8ff#y\
.	.	8gg\J)
4.B\	.	(8gg\L
.	.	8ff#y\
.	.	8gg\J)
4.BB/	.	(8gg\L
.	.	8ff#y\
.	.	8gg\J)
=21	=21	=21
4.BB/	5	(8bb\L
.	.	8aa#X\
.	.	8bb\J)
4.B\	.	(8bb\L
.	.	8aa#y\
.	.	8bb\J)
4.BB/	.	(8bb\L
.	.	8aa#y\
.	.	8bb\J)
=22	=22	=22
4.C#y/	#	(8ee#X\L
.	.	8cc#y\
.	.	8ee#y\J)
4.AA/	6	8ff#y\L
.	.	8a\
.	.	8ff#y\J
4.FF#y/	.	8ff#y\L
.	.	8a\
.	.	8ff#y\J
=23	=23	=23
4.GG#X/	7 3	8ff#y\L
.	.	8b\
.	.	8ff#y\J
4.c#y\	4	8ff#y\L
.	.	8cc#y\
.	.	8ff#y\J
4.C#y/	#	8ee#X\L
.	.	8cc#y\
.	.	8ee#y\J
=24	=24	=24
4.FF#y/	.	8ff#y\L
.	.	8cc#y\
.	.	8ff#y\J
4.F#y\	.	8aa\L
.	.	8ff#y\
.	.	8aa\J
4.FF#y/	.	8ff#y\L
.	.	8cc#y\
.	.	8ff#y\J
!!LO:LB:g=original
=25	=25	=25
4.BB/	#	8dd#X\L
.	.	8b\
.	.	8dd#y\J
4.D#X\	.	8ff#y\L
.	.	8dd#y\
.	.	8ff#y\J
4.BB/	.	8bb\L
.	.	8ff#y\
.	.	8bb\J
=26	=26	=26
4.E\	.	8gg\L
.	.	8b\
.	.	8ee\J
4.e\	.	8gg\L
.	.	8ee\
.	.	8gg\J
4.E\	.	8ee\L
.	.	8b\
.	.	8ee\J
=27	=27	=27
4.AA/	.	8cc#y\L
.	.	8a\
.	.	8cc#y\J
4.C#y/	.	8ee\L
.	.	8cc#y\
.	.	8ee\J
4.AA/	.	8aa\L
.	.	8ee\
.	.	8aa\J
=28	=28	=28
4.D\	.	8ff#y\L
.	.	8dd\
.	.	8a\J
4.d\	.	8f#y/L
.	.	8d/
.	.	8f#y/J
4.D\	.	8a\L
.	.	8dd\
.	.	8a\J
=29	=29	=29
4.G\	.	8b/L
.	.	8g/
.	.	8b/J
4.B\	.	8dd\L
.	.	8b\
.	.	8dd\J
4.G#X\	6	8ee\L
.	.	8b\
.	.	8ee\J
=30	=30	=30
4.A\	.	8cc#y\L
.	.	8a\
.	.	8cc#y\J
4.c#y\	.	8ee\L
.	.	8cc#y\
.	.	8ee\J
4.A#X\	6	8ff#y\L
.	.	8cc#y\
.	.	8ff#y\J
!!LO:LB:g=original
=31	=31	=31
4.B\	.	8dd\L
.	.	8b\
.	.	8dd\J
4.d\	.	8ff#y\L
.	.	8dd\
.	.	8ff#y\J
4.B\	6	8gg\L
.	.	8dd\
.	.	8gg\J
=32	=32	=32
4.A\	.	8cc#y\L
.	.	8a\
.	.	8cc#y\J
4.F#y\	6	8dd\L
.	.	8a\
.	.	8dd\J
4.D\	.	8a/L
.	.	8f#y/
.	.	8dd/J
=33	=33	=33
4.AA/	6 4	8dd\L
.	.	8a\
.	.	8dd\J
4.A\	.	8a/L
.	.	8e/
.	.	8dd/J
4.AA/	5 3	8cc#y\L
.	.	8a\
.	.	8cc#y\J
=34	=34	=34
4.D\	.	4.dd\
4.d\	.	4.r
4.D\	.	4.r
=35	=35	=35
4.D\	.	8d/L
.	.	8f#y/
.	.	8a/J
4.F#y\	6 5nr	8dd\L
.	.	8ccn\
.	.	8dd\J
4.D\	7nr 5	8cc\L
.	.	8b\
.	.	8cc\J
=36	=36	=36
4.G\	.	8b/L
.	.	8g/
.	.	8b/J
4.G#X\	6	8ee\L
.	.	8dd\
.	.	8ee\J
4.E\	7 #	8dd\L
.	.	8cc#y\
.	.	8dd\J
=37	=37	=37
4.A\	.	8cc#y\L
.	.	8a\
.	.	8cc#y\J
4.A#X\	6	8ff#y\L
.	.	8ee\
.	.	8ff#y\J
4.F#y\	7 #	8ee\L
.	.	8dd\
.	.	8ee\J
!!LO:LB:g=original
=38	=38	=38
4.B\	.	8dd\L
.	.	8b\
.	.	8dd\J
4.B\	6	8gg\L
.	.	8ff#y\
.	.	8gg\J
4.G\	7	8ff#y\L
.	.	8ee\
.	.	8ff#y\J
=39	=39	=39
4.A\	.	8ee\L
.	.	8a\
.	.	8b\J
4.AA/	.	8cc#y\L
.	.	8dd\
.	.	8ee\J
4.D\	n	8ffn\L
.	.	8gg\
.	.	8ff\J
=40	=40	=40
4.A\	.	8ee\L
.	.	8a\
.	.	8b\J
4.AA/	.	8cc#y\L
.	.	8dd\
.	.	8ee\J
4.D\	n	8ffn\L
.	.	8gg\
.	.	8ff\J
=41	=41	=41
4.A\	.	8ee\L
.	.	8a\
.	.	8cc#y\J
4.F#y\	6	8dd\L
.	.	8a\
.	.	8dd\J
4.D\	.	8a/L
.	.	8f#y/
.	.	8dd/J
=42	=42	=42
4.AA/	6 4	8dd\L
.	.	8a\
.	.	8dd\J
4.A\	.	8a/L
.	.	8e/
.	.	8dd/J
4.AA/	5 3	8cc#y\L
.	.	8a\
.	.	8cc#y\J
=43	=43	=43
4.D\	.	8dd\L
.	.	8ff#y\
.	.	8aa\J
4.r	.	8ff#y\L
.	.	8dd\
.	.	8ff#y\J
4.r	.	8dd\L
.	.	8a\
.	.	8dd\J
=44	=44	=44
8%9D\;	.	8%9d/;
=:|!	=:|!	=:|!
*-	*-	*-
!!!SMS: RV 9 / Estienne Roger, Amsterdam [facs.]
!!!ENC: Fran Bennion; rev. 04/21 E. Correia
!!!END: 2004/12/23
!!!ONB: Converted from MuseData with musedata2hum on Sat May 11 12:07:53 2024
!!!YEM: (C) 2004, 2004 Center for Computer Assisted Research in the Humanities.
!!!system-decoration: [(s1,s2)]
!!!URL-info: https://wiki.ccarh.org/wiki/MuseData:_Antonio_Vivaldi#Op._2:_Sonate_a_violino_e_basso_per_il_cembalo
!!!URL-pdf: https://pdf.musedata.org/vivaldi-op02-no11.pdf#page=2 MuseData edition
!!!URL-pdf: http://conquest.imslp.info/files/imglnks/usimg/b/b7/IMSLP99075-PMLP183164-Vivaldi_-_Sonatas_Op2.pdf#page=40 Estienne Roger Amsterdam: Estienne Roger, No.2, n.d.[1711].
!!!URL-youtube: https://www.youtube.com/watch?v=SiijZmW9jKM&t=2727s L'Arte dell'Arco
!!!title: @{OTL}, mov. @{OMV}
!!!filter-chint: chint -mid
!!!ONB: Measures 13 and 44 have strange rhythm (8%9) which is technically correct but unprintable.
!!!ONB: The CCARH edition uses a visible note display of dotted-half, but has a tick durtion
!!!ONB: of 9 eighth notes (whole measure).  The Humdrum conversion should also set the visual
!!!ONB: display as dotted half (but currently does not), but adding !LO:N:vis=2. above each such note.
!!!EEV: 2024/05/11
!!!source-file: https://bitbucket.org/musedata/vivaldi/src/master/roger/op2/no11/stage2/02/01
!!!source-file: https://bitbucket.org/musedata/vivaldi/src/master/roger/op2/no11/stage2/02/02
